X:1
T:L'harmonica
C:Traditionnel, fichier abc : Bernard Loffet
L:1/8
Q:420
K:C
M:2/2
 z4 [e2A,,2]A,d | [c2A,,2][A2A,2] [A2A,,2][G2E,2] | [E2A,,2][A2A,2] [A2A,,2][c2A,2] | \
 [B2G,,2][GG,]A [B2G,,2][G2G,2] | [A2A,,2]A,2 [e2A,,2]A,d | [c2A,,2][A2A,2] [A2A,,2][G2E,2] | \
 [E2A,,2][A2A,2] [A2A,,2][e2A,2] | [e2E,,2][d2E,2] [c2E,,2][B2E,2] | [A2A,,2]A,2 G,,2[B2G,2] | \
 [c2C,,2][G2C,2] [c2C,,2][e2C,2] | [d2G,,2][c2G,2] [d2G,,2][eG,]d | [c2A,,2][B2A,2] [A2A,,2][c2A,2] | \
 [B2E,,2]E,2 [e2E,,2]E,d | [c2A,,2][A2A,2] [A2A,,2][G2E,2] | [E2A,,2][A2A,2] [A2A,,2][e2A,2] | \
 [e2E,,2][d2E,2] [c2E,,2][B2E,2] | [A2A,,2]A,2 [e2A,,2]A,d | [c2A,,2][A2A,2] [A2A,,2][G2E,2] | \
 [EA,,]A[AA,]A [A2A,,2][A2A,2] | [G2G,,2][GG,]^F [GG,,]A[BG,]c | [d2G,,2]G,2 [e2G,,2]G,d | \
 [c2F,,2][A2F,2] [A2F,,2][G2F,2] | [EF,,]A[AF,]A [A2F,,2][e2F,2] | [e2E,,2]E,f [eE,,]d[cE,]B | \
 [A2A,,2]A,6 | \
W:Created with TablEdit http://www.tabledit.com/ by Bernard Loffet
